X:242
T:Sir Alex'r MacDonalds Reel. VWMLa.242
%%VWML:Anon2-3049-p160-0
F:http://www.vwml.org/record/Anon2/3049/p160
S:Anon. MS, late 18thC, Vaughan Williams Mem. Library
N:Last four notes of bar 2 were e>a. PJH.
O:England;Yorkshire
Z:vmp/efdss.Simon Wilson. Reviewed PJH 2008.
M:4/4
L:1/8
Q:2/4=80
K:A
AA/A/ Ac B>AB>c|AA/A/ Ac e>fg>a|\
AA/A/ Ac B>ABc|AFFE A3E:|
|:e|e>cc>A B>ABc|e>cc>A c3f|\
e>cc>A B>AB>c|AFF>E A3E:|
T:Targett. VWMLa.243, The
R:Jig
S:Anon. MS, late 18thC, Vaughan Williams Mem. Library
N:NB - lead note added..
O:England;Yorkshire
Z:vmp/efdss.Simon Wilson. Reviewed PJH 2008.
M:6/8
L:1/8
Q:3/8=120
K:G
d|Bcd d2d|e2g d2d|Bcd B2G|A2D D2d|\
Bcd d2d|e2g d2d|BAG BAG|A3 A2:|
"^NB"d|d2D DED|c2D DED|B2G GFG|A2D D2z|\
d2D DED|c2D DED|BAG BAG|A3- A2d|
Bcd d2d|e2g d2d|BAG BAG|A2D D2d|\
Bcd ded|e2g d2d|Bcd D2F|G3 G2|]
